X: 0812
M: 4/4
L: 1/8
K: D
g |\
~fdaf ~gebg | ~fdaf Tgeeg |\
~fdaf gbag | fd AG FDD ||
g |\
fd f/g/a/f/ ge g/a/b/g/ | fd f/g/a/f/ geeg |\
fd AF G/A/B/c/ dg | fd e/f/g/e/ fdd |]

